src/assets/logo.svg

<svg width="186" height="81" viewBox="0 0 1041 606" fill="none" xmlns="http://www.w3.org/2000/svg">
<path d="M549.33 402.36L536.49 415.21V530.9H954.41L967.26 518.06H549.33V402.36Z" fill="white"/>
<path d="M879.12 308.64H902.9L891.01 275.99L879.12 308.64Z" fill="white"/>
<path d="M917.23 228.47H870.23L846.95 248.86L819.14 321V239.9C819.14 239.9 816.73 236.07 800.58 229.96C784.43 223.85 760.71 228.07 760.71 228.07V146.66L772.16 146.26L794.99 126.26V76.9H669.76L658.76 86.5C658.76 86.5 643 75 614.05 75C585.1 75 569.49 92.33 569.49 92.33L553.12 106.13L553.06 76.88H390.27L362.54 99.76L354.35 76.9H243.84L227.4 91.3L216.83 76.9H170.83L158 88.1L157.88 76.9H104.18L80.9 97.29V236.49L126.14 236.39L68.27 388.06H123.39L149.48 366H157.29L165.59 388.06H274.59L311.47 356.41V388.06H365.07L377.51 376.87V388.06H484.19L494.37 378.87V388.06H547.7L558.7 378.47L564.37 388.06H675.27L700.45 366.69C703.8 370.79 722.7 389.95 753.79 389.95C784.88 389.95 799.51 373.4 799.51 373.4L793.87 388.06H849L875.09 365.6H882.9L891.2 388.06H947L970.28 367.67L917.23 228.47ZM180.12 88.57H208.43L253.16 152.36V88.57H282.41V204.45H257.88L209.37 136.69V204.45H180.12V88.57ZM113.5 204.45V88.57H143.89V204.45H113.5ZM194.66 356L186.36 333.54H144.27L136.15 356H106.15L150.32 240.12H181.27L225.42 356H194.66ZM373.94 356H344.12V289.58L314.49 331.1H313.73L283.92 289.58V356H254.28V240.13H282.41L314.11 287.31L346 240.13H373.93L373.94 356ZM354.49 204.45L311.27 88.57H343.73L370 163.49L396.2 88.57H427.34L384.12 204.45H354.49ZM493 266.18H440V284.29H488.51V309.77H440V329.77H493V356H410.16V240.13H493V266.18ZM456.19 204.45V88.57H539.04V114.57H486V132.69H534.51V158.17H486V178.17H539V204.41H456.21L456.19 204.45ZM591.71 356L567.55 317.7H557V356H527V240.13H579.09C604 240.13 621.17 254.29 621.17 279.58C621.17 297.13 612.3 309.21 598.17 314.49L625.31 356H591.71ZM651 188C649.332 190.716 647.254 193.158 644.84 195.24C642.342 197.38 639.575 199.186 636.61 200.61C635.4 201.21 634.14 201.75 632.83 202.25C630.14 203.273 627.375 204.089 624.56 204.69C623.11 205 621.63 205.27 620.12 205.49C616.212 206.047 612.268 206.321 608.32 206.31C592.85 206.31 578.88 201.97 570.39 196.88V169C573.011 170.765 575.747 172.352 578.58 173.75C580.05 174.47 581.58 175.16 583.11 175.8C583.89 176.12 584.67 176.43 585.46 176.73C592.517 179.448 599.999 180.893 607.56 181C615.38 181 622.33 179.63 624.66 175.27C625.222 174.186 625.507 172.981 625.49 171.76C625.503 170.806 625.375 169.856 625.11 168.94C625.033 168.671 624.94 168.407 624.83 168.15C624.132 166.629 622.97 165.369 621.51 164.55C619.656 163.486 617.699 162.612 615.67 161.94L598.12 156.85C595.693 156.143 593.4 155.37 591.24 154.53C576.16 148.63 567.92 139.15 567.92 122.31C567.915 120.233 568.082 118.159 568.42 116.11C569.128 111.73 570.746 107.546 573.17 103.83C573.845 102.813 574.576 101.835 575.36 100.9C575.75 100.44 576.16 99.98 576.57 99.54C577.413 98.6454 578.304 97.7974 579.24 97C582.161 94.5399 585.426 92.5187 588.93 91C590.13 90.47 591.38 90 592.65 89.56C598.801 87.547 605.239 86.5506 611.71 86.61C618.61 86.5481 625.49 87.3511 632.19 89C635.045 89.7202 637.848 90.6323 640.58 91.73C643.166 92.7752 645.687 93.974 648.13 95.32V123.25C646.84 122.36 645.52 121.5 644.19 120.7C634.844 114.858 624.052 111.741 613.03 111.7C611.943 111.7 610.893 111.74 609.88 111.82C608.016 111.953 606.172 112.288 604.38 112.82C603.607 113.052 602.855 113.346 602.13 113.7C601.479 114.015 600.862 114.397 600.29 114.84C599.765 115.254 599.301 115.738 598.91 116.28C598.13 117.377 597.72 118.694 597.74 120.04C597.674 121.295 597.935 122.546 598.497 123.67C599.06 124.793 599.905 125.751 600.95 126.45C601.177 126.623 601.417 126.783 601.67 126.93C602.2 127.253 602.752 127.54 603.32 127.79C604.282 128.223 605.267 128.604 606.27 128.93L607.37 129.29L624.92 134.58C628.589 135.696 632.163 137.1 635.61 138.78C636.14 139.04 636.61 139.31 637.16 139.58C638.16 140.13 639.16 140.69 640.06 141.27C641.409 142.109 642.705 143.03 643.94 144.03C644.74 144.67 645.5 145.34 646.21 146.03C652.64 152.2 655.68 160.09 655.68 170.03C655.683 172.979 655.347 175.918 654.68 178.79C654.076 181.395 653.142 183.912 651.9 186.28C651.64 186.92 651.33 187.48 651 188ZM684.56 356H654.17V240.13H684.55L684.56 356ZM679.09 114.6V88.6H781V114.6H745.13V204.44H714.75V114.61L679.09 114.6ZM805.15 275.6C797.483 269.48 787.96 266.154 778.15 266.17C758.9 266.17 746.63 278.06 746.63 298.06C746.63 317.88 758.9 329.77 778.15 329.77C787.942 329.858 797.469 326.594 805.15 320.52V350C797.79 354.91 787.98 357.93 775.71 357.93C740.42 357.93 716.26 334.15 716.26 298.1C716.26 262.05 740.42 238.27 775.71 238.27C787.98 238.27 797.79 241.27 805.15 246.2V275.6ZM920.26 356L912 333.55H869.87L861.75 356H831.75L875.91 240.12H906.91L951 356H920.26Z" fill="white"/>
<path d="M575.86 265.61H557V293.54H575.88C586.64 293.54 591.54 288.07 591.54 279.54C591.54 271.01 586.62 265.61 575.86 265.61Z" fill="white"/>
<path d="M153.51 308.64H177.3L165.41 275.99L153.51 308.64Z" fill="white"/>
<path d="M840.28 193.46H821.77V122.88H840.28V193.46Z" fill="white"/>
<path d="M913.16 193.46H898.22L868.67 152.19V193.46H850.86V122.88H868.1L895.34 161.73V122.88H913.16V193.46Z" fill="white"/>
<path d="M549.33 402.36V518.06H967.26V402.36H549.33ZM622 491.15L617.1 477.9H592.3L587.51 491.15H569.81L595.86 422.79H614.12L640.12 491.15H622ZM695.37 443.72C690.848 440.113 685.234 438.153 679.45 438.16C668.1 438.16 660.86 445.16 660.86 456.97C660.86 468.78 668.1 475.68 679.45 475.68C685.224 475.729 690.842 473.803 695.37 470.22V487.59C691.03 490.48 685.24 492.27 678 492.27C657.19 492.27 642.93 478.27 642.93 456.97C642.93 435.67 657.19 421.68 678 421.68C685.24 421.68 691 423.46 695.37 426.36V443.72ZM764.85 438.16H743.71V491.16H725.79V438.16H704.79V422.79H764.91L764.85 438.16ZM793.46 491.16H775.56V422.79H793.48L793.46 491.16ZM837.66 492.28C817.95 492.28 804.37 477.36 804.37 456.98C804.37 436.6 817.95 421.69 837.66 421.69C857.37 421.69 871.17 436.5 871.17 456.98C871.17 477.46 857.5 492.27 837.68 492.27L837.66 492.28ZM942.32 491.16H927.86L899.25 451.16V491.16H882V422.79H898.7L925.09 460.42V422.79H942.35L942.32 491.16Z" fill="white"/>
<path d="M837.68 437.38C828.44 437.38 822.43 445.17 822.43 456.97C822.43 468.77 828.43 476.57 837.68 476.57C846.93 476.57 853.16 468.77 853.16 456.97C853.16 445.17 846.92 437.38 837.68 437.38Z" fill="white"/>
<path d="M597.75 463.21H611.78L604.76 443.95L597.75 463.21Z" fill="white"/>
</svg>

<svg id="Layer_1" data-name="Layer 1" xmlns="http://www.w3.org/2000/svg" viewBox="0 0 1040.72 605.92"><defs><style>.cls-1{fill:#fff;}</style></defs><polygon class="cls-1" points="549.33 402.36 536.49 415.21 536.49 530.9 954.41 530.9 967.26 518.06 549.33 518.06 549.33 402.36"/><path class="cls-1" d="M282.41,204.45H257.88l-48.51-67.76v67.76H180.12V88.57h28.31l44.73,63.79V88.57h29.25Z"/><polygon class="cls-1" points="879.12 308.64 902.9 308.64 891.01 275.99 879.12 308.64"/><path class="cls-1" d="M917.23,228.47h-47l-23.28,20.39L819.14,321v-81.1s-2.41-3.83-18.56-9.94-39.87-1.89-39.87-1.89V146.66l11.45-.4,22.83-20V76.9H669.76l-11,9.6S643,75,614.05,75s-44.56,17.33-44.56,17.33l-16.37,13.8-.06-29.25H390.27L362.54,99.76,354.35,76.9H243.84L227.4,91.3,216.83,76.9h-46L158,88.1l-.12-11.2H104.18L80.9,97.29v139.2l45.24-.1L68.27,388.06h55.12L149.48,366h7.81l8.3,22.06h109l36.88-31.65v31.65h53.6l12.44-11.19v11.19H484.19l10.18-9.19v9.19H547.7l11-9.59,5.67,9.59H675.27l25.18-21.37c3.35,4.1,22.25,23.26,53.34,23.26s45.72-16.55,45.72-16.55l-5.64,14.66H849l26.09-22.46h7.81l8.3,22.46H947l23.28-20.39ZM180.12,88.57h28.31l44.73,63.79V88.57h29.25V204.45H257.88l-48.51-67.76v67.76H180.12ZM113.5,204.45h0V88.57h30.39V204.45H113.5ZM194.66,356l-8.3-22.46H144.27L136.15,356h-30l44.17-115.88h30.95L225.42,356Zm179.28,0H344.12V289.58L314.49,331.1h-.76l-29.81-41.52V356H254.28V240.13h28.13l31.7,47.18L346,240.13h27.93ZM354.49,204.45,311.27,88.57h32.46L370,163.49,396.2,88.57h31.14L384.12,204.45ZM493,266.18H440v18.11h48.51v25.48H440v20h53V356H410.16V240.13H493Zm-36.81-61.73h0V88.57h82.85v26H486v18.12h48.51v25.48H486v20h53v26.24H456.21ZM591.71,356,567.55,317.7H557V356H527V240.13h52.09c24.91,0,42.08,14.16,42.08,39.45,0,17.55-8.87,29.63-23,34.91L625.31,356ZM651,188a30.94,30.94,0,0,1-6.16,7.24,37.8,37.8,0,0,1-8.23,5.37c-1.21.6-2.47,1.14-3.78,1.64a56.42,56.42,0,0,1-8.27,2.44c-1.45.31-2.93.58-4.44.8a82.08,82.08,0,0,1-11.8.82c-15.47,0-29.44-4.34-37.93-9.43V169a70.63,70.63,0,0,0,8.19,4.75c1.47.72,3,1.41,4.53,2.05.78.32,1.56.63,2.35.93A64,64,0,0,0,607.56,181c7.82,0,14.77-1.37,17.1-5.73a7.4,7.4,0,0,0,.83-3.51,9.67,9.67,0,0,0-.38-2.82,6.7,6.7,0,0,0-.28-.79,7.91,7.91,0,0,0-3.32-3.6,31.83,31.83,0,0,0-5.84-2.61l-17.55-5.09q-3.64-1.06-6.88-2.32c-15.08-5.9-23.32-15.38-23.32-32.22h0a37.52,37.52,0,0,1,.5-6.2,31.74,31.74,0,0,1,4.75-12.28,32.82,32.82,0,0,1,2.19-2.93c.39-.46.8-.92,1.21-1.36A33.77,33.77,0,0,1,579.24,97a39.31,39.31,0,0,1,9.69-6c1.2-.53,2.45-1,3.72-1.44a59.52,59.52,0,0,1,19.06-2.95A82.6,82.6,0,0,1,632.19,89a65.43,65.43,0,0,1,8.39,2.73,70,70,0,0,1,7.55,3.59v27.93c-1.29-.89-2.61-1.75-3.94-2.55a59.2,59.2,0,0,0-31.16-9q-1.63,0-3.15.12a25.76,25.76,0,0,0-5.5,1,14.85,14.85,0,0,0-2.25.88,10.42,10.42,0,0,0-1.84,1.14,7.21,7.21,0,0,0-1.38,1.44,6.32,6.32,0,0,0-1.17,3.76,7.25,7.25,0,0,0,3.21,6.41q.34.26.72.48a14.13,14.13,0,0,0,1.65.86,28.94,28.94,0,0,0,2.95,1.14l1.1.36,17.55,5.29a72.64,72.64,0,0,1,10.69,4.2c.53.26,1,.53,1.55.8,1,.55,2,1.11,2.9,1.69a38.31,38.31,0,0,1,3.88,2.76c.8.64,1.56,1.31,2.27,2,6.43,6.17,9.47,14.06,9.47,24a38.55,38.55,0,0,1-1,8.76,31.38,31.38,0,0,1-2.78,7.49C651.64,186.92,651.33,187.48,651,188Zm33.56,168H654.17V240.13h30.38Zm-5.47-241.4v-26H781v26H745.13v89.84H714.75V114.61Zm126.06,161a43.17,43.17,0,0,0-27-9.43c-19.25,0-31.52,11.89-31.52,31.89,0,19.82,12.27,31.71,31.52,31.71a42.91,42.91,0,0,0,27-9.25V350c-7.36,4.91-17.17,7.93-29.44,7.93-35.29,0-59.45-23.78-59.45-59.83s24.16-59.83,59.45-59.83c12.27,0,22.08,3,29.44,7.93ZM920.26,356,912,333.55H869.87L861.75,356h-30l44.16-115.88h31L951,356Z"/><path class="cls-1" d="M575.86,265.61H557v27.93h18.88c10.76,0,15.66-5.47,15.66-14S586.62,265.61,575.86,265.61Z"/><polygon class="cls-1" points="153.51 308.64 177.3 308.64 165.41 275.99 153.51 308.64"/><path class="cls-1" d="M840.28,193.46H821.77V122.88h18.51Z"/><path class="cls-1" d="M913.16,193.46H898.22l-29.55-41.27v41.27H850.86V122.88H868.1l27.24,38.85V122.88h17.82Z"/><path class="cls-1" d="M549.33,402.36v115.7H967.26V402.36ZM622,491.15l-4.9-13.25H592.3l-4.79,13.25h-17.7l26.05-68.36h18.26l26,68.36Zm73.37-47.43a25.48,25.48,0,0,0-15.92-5.56c-11.35,0-18.59,7-18.59,18.81s7.24,18.71,18.59,18.71a25.31,25.31,0,0,0,15.92-5.46v17.37c-4.34,2.89-10.13,4.68-17.37,4.68-20.81,0-35.07-14-35.07-35.3s14.26-35.29,35.07-35.29c7.24,0,13,1.78,17.37,4.68Zm69.48-5.56H743.71v53H725.79v-53h-21V422.79h60.12Zm28.61,53H775.56V422.79h17.92Zm44.2,1.12c-19.71,0-33.29-14.92-33.29-35.3s13.58-35.29,33.29-35.29,33.51,14.81,33.51,35.29S857.5,492.27,837.68,492.27Zm104.66-1.12H927.86l-28.61-40v40H882V422.79h16.7l26.39,37.63V422.79h17.26Z"/><path class="cls-1" d="M837.68,437.38c-9.24,0-15.25,7.79-15.25,19.59s6,19.6,15.25,19.6,15.48-7.8,15.48-19.6S846.92,437.38,837.68,437.38Z"/><polygon class="cls-1" points="597.75 463.21 611.78 463.21 604.76 443.95 597.75 463.21"/></svg>
